assets/img/braze_icons/dataflow-04.svg

<svg fill="none" height="24" viewBox="0 0 24 24" width="24" xmlns="http://www.w3.org/2000/svg"><path clip-rule="evenodd" d="m18.032 1h-12.06398c-.43863-.000011-.81715-.000021-1.1304.02135-.32983.02251-.65974.07201-.98567.20701-.73508.30449-1.31911.88851-1.62359 1.62359-.135.32593-.18451.65584-.20701.98567-.02137.31325-.02136.69174-.02135 1.13038v.06398c-.00001.43865-.00002.81715.02135 1.1304.0225.32983.07201.65974.20701.98567.30448.73509.88851 1.31911 1.62359 1.62359.32593.135.65584.18451.98567.20701.31326.02137.69174.02137 1.13039.02135h5.03199v3h-2.2413c-.80494 0-1.46935 0-2.01053.0442-.56209.0459-1.0788.1445-1.56413.3918-.75265.3835-1.36457.9954-1.74807 1.748-.24729.4854-.34585 1.0021-.39178 1.5642-.03295.4033-.04134.875-.04347 1.4223-1.16557.4116-2.00072 1.523-2.00072 2.8295 0 1.6569 1.34315 3 3 3s3-1.3431 3-3c0-1.3059-.83441-2.4169-1.99917-2.829.00214-.5285.00975-.9298.03672-1.26.03582-.4384.10075-.6626.18044-.819.19174-.3763.49771-.6823.87403-.874.1564-.0797.3806-.1446.81902-.1804.45009-.0368 1.03238-.0376 1.88896-.0376h2.2v3.1707c-1.16519.4118-2 1.5231-2 2.8293 0 1.6569 1.3431 3 3 3s3-1.3431 3-3c0-1.3062-.8348-2.4175-2-2.8293v-3.1707h2.2c.8566 0 1.4389.0008 1.889.0376.4384.0358.6626.1007.819.1804.3763.1917.6823.4977.874.874.0797.1564.1446.3806.1804.819.027.3302.0346.7315.0368 1.26-1.1648.4121-1.9992 1.5231-1.9992 2.829 0 1.6569 1.3431 3 3 3s3-1.3431 3-3c0-1.3065-.8352-2.4179-2.0007-2.8295-.0022-.5473-.0105-1.019-.0435-1.4223-.0459-.5621-.1445-1.0788-.3918-1.5642-.3835-.7526-.9954-1.3645-1.748-1.748-.4854-.2473-1.0021-.3459-1.5642-.3918-.5412-.0442-1.2055-.0442-2.0104-.0442h-2.2414v-3h5.032c.4386.00002.8171.00002 1.1304-.02135.3298-.0225.6597-.07201.9857-.20701.735-.30448 1.3191-.8885 1.6235-1.62359.135-.32593.1845-.65584.2071-.98567.0213-.31325.0213-.69174.0213-1.13039v-.06398c0-.43865 0-.81713-.0213-1.13039-.0226-.32983-.0721-.65974-.2071-.98567-.3044-.73508-.8885-1.3191-1.6235-1.62359-.326-.135-.6559-.1845-.9857-.20701-.3133-.021371-.6918-.021361-1.1304-.02135z" fill="#801ed7" fill-rule="evenodd"/></svg>

<svg width="24" height="24" viewBox="0 0 24 24" fill="none" xmlns="http://www.w3.org/2000/svg">
<path fill-rule="evenodd" clip-rule="evenodd" d="M18.032 1H5.96802C5.52939 0.999989 5.15087 0.999979 4.83762 1.02135C4.50779 1.04386 4.17788 1.09336 3.85195 1.22836C3.11687 1.53285 2.53284 2.11687 2.22836 2.85195C2.09336 3.17788 2.04385 3.50779 2.02135 3.83762C1.99998 4.15087 1.99999 4.52936 2 4.968V5.03198C1.99999 5.47063 1.99998 5.84913 2.02135 6.16238C2.04385 6.49221 2.09336 6.82212 2.22836 7.14805C2.53284 7.88314 3.11687 8.46716 3.85195 8.77164C4.17788 8.90664 4.50779 8.95615 4.83762 8.97865C5.15088 9.00002 5.52936 9.00002 5.96801 9H11V12H8.7587C7.95376 12 7.28935 12 6.74817 12.0442C6.18608 12.0901 5.66937 12.1887 5.18404 12.436C4.43139 12.8195 3.81947 13.4314 3.43597 14.184C3.18868 14.6694 3.09012 15.1861 3.04419 15.7482C3.01124 16.1515 3.00285 16.6232 3.00072 17.1705C1.83515 17.5821 1 18.6935 1 20C1 21.6569 2.34315 23 4 23C5.65685 23 7 21.6569 7 20C7 18.6941 6.16559 17.5831 5.00083 17.171C5.00297 16.6425 5.01058 16.2412 5.03755 15.911C5.07337 15.4726 5.1383 15.2484 5.21799 15.092C5.40973 14.7157 5.7157 14.4097 6.09202 14.218C6.24842 14.1383 6.47262 14.0734 6.91104 14.0376C7.36113 14.0008 7.94342 14 8.8 14H11V17.1707C9.83481 17.5825 9 18.6938 9 20C9 21.6569 10.3431 23 12 23C13.6569 23 15 21.6569 15 20C15 18.6938 14.1652 17.5825 13 17.1707V14H15.2C16.0566 14 16.6389 14.0008 17.089 14.0376C17.5274 14.0734 17.7516 14.1383 17.908 14.218C18.2843 14.4097 18.5903 14.7157 18.782 15.092C18.8617 15.2484 18.9266 15.4726 18.9624 15.911C18.9894 16.2412 18.997 16.6425 18.9992 17.171C17.8344 17.5831 17 18.6941 17 20C17 21.6569 18.3431 23 20 23C21.6569 23 23 21.6569 23 20C23 18.6935 22.1648 17.5821 20.9993 17.1705C20.9971 16.6232 20.9888 16.1515 20.9558 15.7482C20.9099 15.1861 20.8113 14.6694 20.564 14.184C20.1805 13.4314 19.5686 12.8195 18.816 12.436C18.3306 12.1887 17.8139 12.0901 17.2518 12.0442C16.7106 12 16.0463 12 15.2414 12H13V9H18.032C18.4706 9.00002 18.8491 9.00002 19.1624 8.97865C19.4922 8.95615 19.8221 8.90664 20.1481 8.77164C20.8831 8.46716 21.4672 7.88314 21.7716 7.14805C21.9066 6.82212 21.9561 6.49221 21.9787 6.16238C22 5.84913 22 5.47064 22 5.03199V4.96801C22 4.52936 22 4.15088 21.9787 3.83762C21.9561 3.50779 21.9066 3.17788 21.7716 2.85195C21.4672 2.11687 20.8831 1.53285 20.1481 1.22836C19.8221 1.09336 19.4922 1.04386 19.1624 1.02135C18.8491 0.999979 18.4706 0.999989 18.032 1Z" fill="#801ED7"/>
</svg>
